; HEADER_BLOCK_START
; generated by Creality_Print V5.1.6.10470 on 2025-04-07 at 21:53:27
; total layer number: 25
; filament_density: 1.22
; filament_diameter: 1.75
; max_z_height: 5.00
; HEADER_BLOCK_END

; MINX = 11.73
; MINY = 12.69
; MINZ = -0.00
; MAXX = 208.27
; MAXY = 209.22
; MAXZ = 4.90

; THUMBNAIL_BLOCK_START

;
; THUMBNAIL_BLOCK_END

; external perimeters extrusion width = 0.42mm
; perimeters extrusion width = 0.45mm
; infill extrusion width = 0.45mm
; solid infill extrusion width = 0.45mm
; top infill extrusion width = 0.42mm
; support material extrusion width = 0.38mm
; first layer extrusion width = 0.50mm

; EXECUTABLE_BLOCK_START
M73 P0 R85
M73 C67
M201 X500 Y500 Z100 E5000
M203 X500 Y500 Z10 E60
M204 P500 R1000 T500
M205 X12.00 Y12.00 Z0.40 E5.00 ; sets the jerk limits, mm/sec
;TYPE:Custom
G90 ; use absolute coordinates
M83 ; extruder relative mode
M104 S150 ; set temporary nozzle temp to prevent oozing during homing
M140 S65 ; set final bed temp
G4 S30 ; allow partial nozzle warmup
G28 ; home all axis and restore leveling
G1 Z50 F240
G1 X2.0 Y10 F3000
M104 S230 ; set final nozzle temp
M190 S65 ; wait for bed temp to stabilize
M109 S230 ; wait for nozzle temp to stabilize
M73 P0 R84
G1 Z0.28 F240
G92 E0
G1 X2.0 Y140 E10 F1500 ; prime the nozzle
M73 C66
G1 X2.3 Y140 F5000
G92 E0
G1 X2.3 Y10 E10 F1200 ; prime the nozzle
G92 E0
G90
G21
M83 ; use relative distances for extrusion
; filament start gcode
M106 S0
;LAYER_CHANGE
;Z:0.2
;HEIGHT:0.2
;BEFORE_LAYER_CHANGE
;0.2
G92 E0

G1 E-2 F2400
;_SET_FAN_SPEED_CHANGING_LAYER
M204 S500
M205 X8 Y8
; printing object desenho pulseria nfc.stl id:15 copy 0
G1 Z.2 F9600
G1 X131.079 Y103.679
G1 Z.2
G1 E2 F2400
;TYPE:Inner wall
;WIDTH:0.499999
G1 F1706.488
G1 X130.931 Y106.311 E.1002
G1 X129.928 Y109.6 E.13068
G1 X128.153 Y112.554 E.131
G1 X125.742 Y114.965 E.12957
G1 X122.787 Y116.741 E.131
G1 X119.499 Y117.744 E.13068
G1 X116.109 Y117.934 E.12903
G1 X115.901 Y117.978 E.00806
G1 X115.659 Y118.134 E.01098
G1 X28.069 Y205.721 E4.70779
G1 X25.728 Y207.422 E.10996
G1 X23.03 Y208.298 E.10782
G1 X20.193 Y208.298 E.10782
G1 X17.495 Y207.422 E.10782
G1 X15.2 Y205.754 E.10782
G1 X13.533 Y203.459 E.10782
G1 X12.656 Y200.761 E.10782
G1 X12.656 Y197.925 E.10782
G1 X13.533 Y195.227 E.10782
G1 X15.233 Y192.886 E.10996
G1 X102.82 Y105.296 E4.70779
G1 X102.939 Y105.135 E.0076
G1 X103.02 Y104.846 E.01143
G1 X103.211 Y101.456 E.12903
G1 X104.214 Y98.167 E.13068
G1 X105.99 Y95.213 E.131
G1 X108.4 Y92.802 E.12957
G1 X111.355 Y91.026 E.131
G1 X114.644 Y90.023 E.13068
G1 X118.033 Y89.833 E.12903
G1 X118.241 Y89.789 E.00805
G1 X118.483 Y89.633 E.01097
G1 X173.982 Y34.134 E2.98299
G1 X174.147 Y33.867 E.01196
M73 P1 R84
G1 X174.182 Y33.665 E.00777
G1 X174.264 Y30.938 E.10371
G1 X175.153 Y28.322 E.105
G1 X176.784 Y26.099 E.10477
G1 X179.007 Y24.469 E.10477
G1 X181.622 Y23.58 E.105
G1 X184.35 Y23.498 E.10371
G1 X184.551 Y23.463 E.00777
G1 X184.819 Y23.297 E.01196
G1 X191.931 Y16.188 E.3822
G1 X194.272 Y14.487 E.10996
G1 X196.97 Y13.611 E.10782
G1 X199.807 Y13.611 E.10782
G1 X202.505 Y14.487 E.10782
G1 X204.8 Y16.155 E.10782
G1 X206.467 Y18.45 E.10782
G1 X207.344 Y21.148 E.10782
G1 X207.344 Y23.985 E.10782
G1 X206.467 Y26.683 E.10782
G1 X204.766 Y29.024 E.10999
G3 X197.847 Y35.907 I-337.805 J-332.651 E.37092
G1 X197.71 Y36.099 E.00897
G1 X197.643 Y36.402 E.01179
G3 X197.623 Y39.157 I-60.213 J.948 E.10475
G1 X196.732 Y41.945 E.11124
G1 X195.008 Y44.324 E.11164
G1 X192.995 Y45.783 E.09449
G1 X192.573 Y46.068 E.01938
G1 X189.842 Y46.938 E.10893
G3 X187.086 Y46.958 I-1.807 J-60.201 E.10474
G1 X186.787 Y47.024 E.01166
G1 X186.595 Y47.159 E.00891
G1 X131.324 Y102.469 E2.9718
G1 X131.203 Y102.632 E.00772
G1 X131.122 Y102.921 E.01143
G1 X131.082 Y103.639 E.02731
G1 X131.577 Y102.974 F9600
;TYPE:Outer wall
G1 F1706.488
G1 X131.384 Y106.393 E.13015
G1 X130.349 Y109.787 E.13485
G1 X128.515 Y112.838 E.13528
G1 X126.025 Y115.328 E.13384
G1 X122.975 Y117.161 E.13528
G1 X119.581 Y118.196 E.13485
G1 X116.132 Y118.391 E.13129
G1 X115.982 Y118.458 E.00624
G1 X28.366 Y206.07 E4.70916
G1 X25.938 Y207.834 E.11408
G1 X23.102 Y208.756 E.11332
G1 X20.121 Y208.755 E.11332
G1 X17.285 Y207.834 E.11332
G1 X14.873 Y206.082 E.11332
G1 X13.12 Y203.669 E.11332
G1 X12.199 Y200.834 E.11332
G1 X12.199 Y197.852 E.11332
G1 X13.12 Y195.016 E.11332
G1 X14.885 Y192.588 E.11408
G1 X102.497 Y104.973 E4.70916
G1 X102.564 Y104.823 E.00624
M73 P1 R83
G1 X102.758 Y101.374 E.13129
G1 X103.793 Y97.98 E.13485
G1 X105.627 Y94.929 E.13528
G1 X108.117 Y92.439 E.13384
G1 X111.167 Y90.606 E.13528
G1 X114.561 Y89.571 E.13485
G1 X118.01 Y89.376 E.13129
G1 X118.16 Y89.31 E.00624
G1 X173.658 Y33.811 E2.98298
G1 X173.725 Y33.655 E.00646
G1 X173.81 Y30.853 E.10652
G1 X174.743 Y28.108 E.11019
G1 X176.457 Y25.772 E.11011
G1 X178.793 Y24.059 E.11011
G1 X181.538 Y23.126 E.11019
G1 X184.339 Y23.041 E.10652
G1 X184.496 Y22.974 E.00646
G1 X191.634 Y15.839 E.38356
G1 X194.062 Y14.075 E.11408
G1 X196.898 Y13.154 E.11332
G1 X199.879 Y13.154 E.11332
G1 X202.715 Y14.075 E.11332
M73 C65
G1 X205.127 Y15.828 E.11332
G1 X206.88 Y18.24 E.11332
G1 X207.801 Y21.075 E.11332
G1 X207.801 Y24.057 E.11332
G1 X206.88 Y26.893 E.11332
G1 X205.115 Y29.321 E.11409
G3 X198.168 Y36.232 I-339.193 J-334.006 E.37244
G1 X198.1 Y36.397 E.00678
G3 X198.079 Y39.234 I-61.988 J.953 E.10781
G1 X197.141 Y42.16 E.11679
G1 X195.336 Y44.651 E.11693
G1 X192.976 Y46.361 E.11076
G1 X192.718 Y46.501 E.01114
G1 X189.918 Y47.394 E.1117
G3 X187.082 Y47.415 I-1.884 J-61.974 E.1078
G1 X186.918 Y47.482 E.00672
G1 X131.647 Y102.792 E2.9718
G1 X131.583 Y102.935 E.00598
G1 E-1.4 F2400
;WIPE_START
G1 F1706.488
G1 X131.525 Y103.934 E-.6
;WIPE_END
G1 Z.4 F9600
G1 X181.506 Y25.628 Z.4
G1 Z.2
G1 E2 F2400
;TYPE:Inner wall
G1 F1706.488
G1 X181.853 Y25.944 E.01784
G1 X195.576 Y39.663 E.73748
G1 X195.741 Y39.929 E.01191
G1 X195.773 Y40.22 E.01113
G3 X195.573 Y41.261 I-3.234 J-.08 E.04045
G1 X195.468 Y41.853 E.02286
G1 X195.366 Y42.11 E.01051
G1 X194.424 Y43.543 E.06518
G1 X194.228 Y43.739 E.01055
G1 X192.794 Y44.681 E.06519
G1 X192.555 Y44.78 E.00985
G3 X190.931 Y45.085 I-3.589 J-14.649 E.06283
G1 X190.625 Y45.06 E.01166
G1 X190.348 Y44.891 E.01234
G1 X176.288 Y30.827 E.75582
G1 X176.164 Y30.658 E.00795
G1 X176.088 Y30.297 E.01403
G3 X176.298 Y28.718 I11.423 J.714 E.06061
G1 X176.387 Y28.484 E.00948
G1 X177.318 Y26.951 E.06817
G1 X177.593 Y26.659 E.01525
G1 X179.169 Y25.702 E.07009
G1 X179.402 Y25.614 E.00948
G1 X179.912 Y25.521 E.0197
G1 X180.953 Y25.406 E.0398
G1 X181.343 Y25.479 E.01508
G1 X181.476 Y25.601 E.00684
G1 X180.981 Y25.863 F9600
;TYPE:Outer wall
G1 F1706.488
G1 X181.002 Y25.861 E.00081
G1 X181.189 Y25.926 E.0075
G1 X195.252 Y39.986 E.7558
G1 X195.318 Y40.172 E.00749
G3 X195.123 Y41.181 I-2.991 J-.054 E.03926
G1 X195.01 Y41.819 E.02465
G1 X194.016 Y43.331 E.06877
G1 X192.543 Y44.3 E.06698
G1 X191.31 Y44.568 E.04798
G1 X190.763 Y44.624 E.02087
G1 X190.33 Y44.227 E.02236
G1 X176.611 Y30.504 E.73748
G1 X176.544 Y30.327 E.00717
G3 X176.755 Y28.758 I11.151 J.7 E.06024
G1 X177.708 Y27.188 E.06979
G1 X177.873 Y27.024 E.00884
G1 X179.406 Y26.093 E.06818
G1 X179.994 Y25.971 E.02281
G1 X180.942 Y25.867 E.03623
G1 E-1.4 F2400
;WIPE_START
G1 F1706.488
G1 X181.002 Y25.861 E-.03671
G1 X181.189 Y25.926 E-.11846
G1 X181.713 Y26.45 E-.44483
;WIPE_END
G1 Z.4 F9600
G1 X85.239 Y137.958 Z.4
G1 Z.2
G1 E2 F2400
;TYPE:Inner wall
G1 F1706.488
G1 X85.176 Y138.562 E.02311
G3 X84.97 Y138.984 I-.682 J-.072 E.01819
G1 X84.223 Y139.705 E.03945
G3 X83.794 Y139.895 I-.476 J-.493 E.01819
G1 X82.759 Y139.967 E.03945
G1 X82.467 Y139.924 E.0112
G1 X81.571 Y139.302 E.04146
G1 X81.308 Y139.063 E.01352
G1 X81.206 Y138.838 E.00936
G1 X80.955 Y137.831 E.03945
G1 X80.949 Y137.479 E.0134
G1 X81.46 Y136.432 E.04427
G3 X81.719 Y136.141 I.693 J.357 E.01496
G1 X82.746 Y135.684 E.04271
G3 X83.214 Y135.652 I.279 J.626 E.01819
G1 X84.212 Y135.938 E.03945
G1 X84.518 Y136.106 E.01327
G1 X85.171 Y137.075 E.04442
G1 X85.273 Y137.317 E.00997
G1 X85.284 Y137.53 E.00812
G1 X85.244 Y137.918 E.01482
G1 X84.829 Y137.486 F9600
;TYPE:Outer wall
G1 F1706.488
G1 X84.721 Y138.514 E.0393
G1 X84.652 Y138.655 E.00594
G1 X83.905 Y139.376 E.03945
G1 X83.762 Y139.439 E.00594
G1 X82.727 Y139.511 E.03945
G1 X82.577 Y139.468 E.00594
G1 X81.737 Y138.858 E.03945
G1 X81.65 Y138.728 E.00594
G1 X81.399 Y137.721 E.03945
G1 X81.415 Y137.565 E.00594
G1 X81.871 Y136.632 E.03945
G1 X81.957 Y136.535 E.00494
G1 X82.932 Y136.102 E.04054
G1 X83.088 Y136.091 E.00594
G1 X84.086 Y136.378 E.03945
G1 X84.212 Y136.47 E.00594
G1 X84.792 Y137.33 E.03945
G1 X84.821 Y137.447 E.00457
G1 E-1.4 F2400
;WIPE_START
G1 F1706.488
G1 X84.728 Y138.443 E-.6
;WIPE_END
G1 Z.4 F9600
G1 X79.63 Y141.153 Z.4
G1 Z.2
G1 E2 F2400
;TYPE:Inner wall
G1 F1706.488
G1 X79.641 Y141.164 E.00058
G1 X80.221 Y142.025 E.03945
G1 X80.324 Y142.266 E.00994
G1 X80.335 Y142.48 E.00815
G1 X80.226 Y143.512 E.03945
G3 X80.02 Y143.934 I-.682 J-.072 E.01819
G1 X79.273 Y144.654 E.03945
G3 X78.844 Y144.845 I-.476 J-.493 E.01819
G1 X77.809 Y144.917 E.03945
G1 X77.517 Y144.874 E.0112
G1 X76.621 Y144.252 E.04146
G1 X76.358 Y144.013 E.01352
G1 X76.256 Y143.788 E.00936
G1 X76.006 Y142.781 E.03945
G1 X75.999 Y142.428 E.0134
G1 X76.51 Y141.381 E.04427
G3 X76.769 Y141.091 I.693 J.357 E.01496
G1 X77.796 Y140.634 E.04271
G3 X78.264 Y140.601 I.279 J.626 E.01819
G1 X79.262 Y140.888 E.03945
G1 X79.448 Y140.973 E.00776
G1 X79.602 Y141.125 E.00823
G1 X79.098 Y141.316 F9600
;TYPE:Outer wall
G1 F1706.488
G1 X79.136 Y141.327 E.00149
G1 X79.262 Y141.419 E.00594
G1 X79.842 Y142.28 E.03945
G1 X79.88 Y142.432 E.00594
G1 X79.771 Y143.464 E.03945
G1 X79.703 Y143.605 E.00594
G1 X78.956 Y144.325 E.03945
G1 X78.813 Y144.389 E.00594
G1 X77.777 Y144.461 E.03945
G1 X77.627 Y144.418 E.00594
G1 X76.787 Y143.807 E.03945
G1 X76.7 Y143.678 E.00594
G1 X76.449 Y142.67 E.03945
G1 X76.466 Y142.515 E.00594
G1 X76.921 Y141.582 E.03945
G1 X77.007 Y141.485 E.00494
G1 X77.982 Y141.052 E.04054
G1 X78.138 Y141.041 E.00594
G1 X79.06 Y141.305 E.03644
G1 E-1.4 F2400
;WIPE_START
G1 F1706.488
G1 X79.136 Y141.327 E-.04759
G1 X79.262 Y141.419 E-.0938
G1 X79.689 Y142.053 E-.45861
;WIPE_END
G1 Z.4 F9600
G1 X73.722 Y145.668 Z.4
G1 Z.2
G1 E2 F2400
;TYPE:Inner wall
G1 F1706.488
G1 X74.312 Y145.838 E.02334
G1 X74.498 Y145.923 E.00776
G1 X74.692 Y146.114 E.01034
G1 X75.272 Y146.974 E.03945
G1 X75.374 Y147.215 E.00994
G1 X75.385 Y147.43 E.00815
G1 X75.276 Y148.462 E.03945
G3 X75.07 Y148.883 I-.682 J-.072 E.01819
G1 X74.323 Y149.604 E.03945
G3 X73.895 Y149.795 I-.476 J-.493 E.01819
G1 X72.859 Y149.867 E.03945
G1 X72.568 Y149.824 E.0112
G1 X71.671 Y149.201 E.04146
G1 X71.408 Y148.962 E.01352
G1 X71.307 Y148.738 E.00936
G1 X71.056 Y147.73 E.03945
G1 X71.049 Y147.378 E.0134
G1 X71.561 Y146.331 E.04427
G3 X71.82 Y146.04 I.693 J.357 E.01496
G1 X72.847 Y145.584 E.04271
G3 X73.314 Y145.551 I.279 J.626 E.01819
G1 X73.683 Y145.657 E.01459
G1 X73.183 Y145.991 F9600
;TYPE:Outer wall
G1 F1706.488
G1 X73.188 Y145.991 E.00018
G1 X74.186 Y146.277 E.03945
G1 X74.312 Y146.369 E.00594
G1 X74.893 Y147.23 E.03945
G1 X74.93 Y147.382 E.00594
G1 X74.821 Y148.414 E.03945
G1 X74.753 Y148.554 E.00594
G1 X74.006 Y149.275 E.03945
G1 X73.863 Y149.339 E.00594
G1 X72.827 Y149.411 E.03945
G1 X72.677 Y149.368 E.00594
G1 X71.838 Y148.757 E.03945
G1 X71.75 Y148.627 E.00594
G1 X71.499 Y147.62 E.03945
G1 X71.516 Y147.465 E.00594
G1 X71.971 Y146.532 E.03945
G1 X72.058 Y146.435 E.00494
G1 X73.032 Y146.001 E.04054
G1 X73.144 Y145.994 E.00424
G1 E-1.4 F2400
;WIPE_START
G1 F1706.488
G1 X73.188 Y145.991 E-.0269
G1 X74.106 Y146.254 E-.5731
;WIPE_END
G1 Z.4 F9600
G1 X70.427 Y152.453 Z.4
G1 Z.2
G1 E2 F2400
;TYPE:Inner wall
G1 F1706.488
G1 X70.326 Y153.412 E.03663
G3 X70.121 Y153.833 I-.682 J-.072 E.01819
G1 X69.373 Y154.554 E.03945
G3 X68.945 Y154.744 I-.476 J-.493 E.01819
G1 X67.909 Y154.816 E.03945
G1 X67.618 Y154.773 E.0112
G1 X66.722 Y154.151 E.04146
G1 X66.458 Y153.912 E.01352
G1 X66.357 Y153.688 E.00936
G1 X66.106 Y152.68 E.03945
G1 X66.1 Y152.328 E.0134
G1 X66.611 Y151.281 E.04427
G3 X66.87 Y150.99 I.693 J.357 E.01496
G1 X67.897 Y150.533 E.04271
G3 X68.365 Y150.501 I.279 J.626 E.01819
G1 X69.362 Y150.788 E.03945
G1 X69.548 Y150.872 E.00776
G1 X69.742 Y151.063 E.01034
G1 X70.322 Y151.924 E.03945
G1 X70.424 Y152.165 E.00994
G1 X70.435 Y152.379 E.00815
G1 X70.432 Y152.413 E.0013
G1 X69.921 Y152.147 F9600
;TYPE:Outer wall
G1 F1706.488
G1 X69.943 Y152.18 E.00148
G1 X69.981 Y152.331 E.00594
G1 X69.872 Y153.364 E.03945
G1 X69.803 Y153.504 E.00594
G1 X69.056 Y154.225 E.03945
G1 X68.913 Y154.289 E.00594
G1 X67.878 Y154.361 E.03945
G1 X67.727 Y154.317 E.00594
G1 X66.888 Y153.707 E.03945
G1 X66.8 Y153.577 E.00594
G1 X66.55 Y152.57 E.03945
G1 X66.566 Y152.414 E.00594
G1 X67.022 Y151.482 E.03945
G1 X67.108 Y151.385 E.00494
G1 X68.083 Y150.951 E.04054
G1 X68.239 Y150.94 E.00594
G1 X69.236 Y151.227 E.03945
G1 X69.363 Y151.319 E.00594
G1 X69.899 Y152.114 E.03645
G1 E-1.4 F2400
;WIPE_START
G1 F1706.488
G1 X69.943 Y152.18 E-.04744
G1 X69.981 Y152.331 E-.0938
G1 X69.9 Y153.092 E-.45876
;WIPE_END
G1 Z.4 F9600
G1 X61.425 Y156.715 Z.4
G1 Z.2
G1 E2 F2400
;TYPE:Inner wall
G1 F1706.488
G1 X61.661 Y156.231 E.02047
G3 X61.92 Y155.94 I.693 J.357 E.01496
G1 X62.947 Y155.483 E.04271
G3 X63.415 Y155.451 I.279 J.626 E.01819
G1 X64.413 Y155.737 E.03945
G1 X64.598 Y155.822 E.00776
G1 X64.792 Y156.013 E.01034
G1 X65.372 Y156.874 E.03945
G1 X65.474 Y157.115 E.00994
G1 X65.485 Y157.329 E.00815
G1 X65.377 Y158.361 E.03945
G3 X65.171 Y158.783 I-.682 J-.072 E.01819
G1 X64.424 Y159.504 E.03945
G3 X63.995 Y159.694 I-.476 J-.493 E.01819
G1 X62.96 Y159.766 E.03945
G1 X62.668 Y159.723 E.0112
G1 X61.772 Y159.101 E.04146
G1 X61.509 Y158.862 E.01352
G1 X61.407 Y158.637 E.00936
G1 X61.156 Y157.63 E.03945
G1 X61.15 Y157.278 E.0134
G1 X61.407 Y156.751 E.02229
G1 X61.616 Y157.37 F9600
;TYPE:Outer wall
G1 F1706.488
G1 X61.616 Y157.364 E.00024
G1 X62.072 Y156.431 E.03945
G1 X62.158 Y156.334 E.00494
G1 X63.133 Y155.901 E.04054
G1 X63.289 Y155.89 E.00594
G1 X64.287 Y156.177 E.03945
G1 X64.413 Y156.269 E.00594
G1 X64.993 Y157.129 E.03945
G1 X65.031 Y157.281 E.00594
G1 X64.922 Y158.313 E.03945
G1 X64.853 Y158.454 E.00594
G1 X64.106 Y159.175 E.03945
G1 X63.964 Y159.238 E.00594
G1 X62.928 Y159.31 E.03945
G1 X62.778 Y159.267 E.00594
G1 X61.938 Y158.657 E.03945
G1 X61.851 Y158.527 E.00594
G1 X61.6 Y157.52 E.03945
G1 X61.612 Y157.41 E.00418
G1 E-1.4 F2400
;WIPE_START
G1 F1706.488
G1 X61.616 Y157.364 E-.02779
G1 X62.035 Y156.507 E-.57221
;WIPE_END
G1 Z.4 F9600
G1 X59.061 Y164.64 Z.4
G1 Z.2
G1 E2 F2400
;TYPE:Inner wall
G1 F1706.488
G1 X59.045 Y164.644 E.00062
G1 X58.01 Y164.716 E.03945
G1 X57.718 Y164.673 E.0112
G1 X56.822 Y164.051 E.04146
G1 X56.559 Y163.812 E.01352
G1 X56.457 Y163.587 E.00936
G1 X56.207 Y162.58 E.03945
G1 X56.2 Y162.227 E.0134
G1 X56.711 Y161.18 E.04427
G3 X56.971 Y160.89 I.693 J.357 E.01496
G1 X57.997 Y160.433 E.04271
G3 X58.465 Y160.4 I.279 J.626 E.01819
G1 X59.463 Y160.687 E.03945
G1 X59.649 Y160.772 E.00776
G1 X59.842 Y160.963 E.01034
G1 X60.422 Y161.824 E.03945
G1 X60.525 Y162.065 E.00994
G1 X60.536 Y162.279 E.00815
G1 X60.427 Y163.311 E.03945
G3 X60.221 Y163.733 I-.682 J-.072 E.01819
G1 X59.474 Y164.453 E.03945
G3 X59.28 Y164.585 I-.476 J-.493 E.00894
G1 X59.1 Y164.63 E.00707
G1 X59.185 Y164.097 F9600
;TYPE:Outer wall
G1 F1706.488
G1 X59.157 Y164.124 E.00152
G1 X59.014 Y164.188 E.00594
G1 X57.978 Y164.26 E.03945
G1 X57.828 Y164.217 E.00594
G1 X56.988 Y163.606 E.03945
G1 X56.901 Y163.477 E.00594
G1 X56.65 Y162.469 E.03945
G1 X56.667 Y162.314 E.00594
G1 X57.122 Y161.381 E.03945
G1 X57.208 Y161.284 E.00494
G1 X58.183 Y160.851 E.04054
G1 X58.339 Y160.84 E.00594
G1 X59.337 Y161.126 E.03945
G1 X59.463 Y161.218 E.00594
G1 X60.043 Y162.079 E.03945
G1 X60.081 Y162.231 E.00594
G1 X59.972 Y163.263 E.03945
G1 X59.904 Y163.404 E.00594
G1 X59.214 Y164.069 E.03641
G1 E-1.4 F2400
;WIPE_START
G1 F1706.488
G1 X59.157 Y164.124 E-.04799
G1 X59.014 Y164.188 E-.0938
G1 X58.252 Y164.241 E-.45821
;WIPE_END
G1 Z.4 F9600
G1 X53.68 Y169.623 Z.4
G1 Z.2
G1 E2 F2400
;TYPE:Inner wall
